X: 26728
T: Mike Sullivan's
R: hornpipe
M: 4/4
K: Dmajor
|:cz cB cecA|d2 (3edc dfaA|BccB ceaf|ecAB BAFA|
BccB cecA|(3ded (3B=c^c dfaf|ezAc BAFA|1 A2 AG A2 AB:|2 A2 AG A2A2||
|:efge aged|(3efg ed ec A2|ef g2 az ag|efed (3efd ed|
BccB cecA|(3ded (3B=c^c dfaf|ecAB BAFG|A2 AG A2A2:|

